Yaru++/actions/16/distribute-vertical-page.svg

<svg viewBox="0 0 24 24" xmlns="http://www.w3.org/2000/svg">
  <path d="m20 4h-1-15v1 11l1 1.33398 1.25 1.66602.75 1h12 1zm-1 1v14h-12v-3h-2v-11zm-3 1h-8v5h8zm0 7h-8v5h8zm-1-6v3h-6v-3zm0 7v3h-6v-3z" fill="#808080"/>
</svg>

<svg xmlns="http://www.w3.org/2000/svg" viewBox="0 0 24 24">
 <defs>
  <style id="current-color-scheme" type="text/css">
   .ColorScheme-Text { color:#808080; }
  </style>
 </defs>
 <path style="fill:currentColor" class="ColorScheme-Text" d="M 20,4 19,4 4,4 4,5 4,16 5,17.33398 6.25,19 7,20 19,20 20,20 20,4 M 19,5 19,19 7,19 7,16 5,16 5,5 19,5 m -3,1 -8,0 0,5 8,0 0,-5 m 0,7 -8,0 0,5 8,0 0,-5 m -1,-6 0,3 -6,0 0,-3 6,0 m 0,7 0,3 -6,0 0,-3 6,0"/>
</svg>
